gama.ui.shared/icons_svg/dark/generic/menu.update.svg

<svg height="25" viewBox="-130.774 -3167.932 25 25" width="25" xmlns="http://www.w3.org/2000/svg"><g fill="none"><path d="m-126.4341-3167.4315h16.32c2.12077 0 3.84 1.7192 3.84 3.84v16.32c0 2.1208-1.71923 3.84-3.84 3.84h-16.32c-2.12077 0-3.84-1.7192-3.84-3.84v-16.32c0-2.1208 1.71923-3.84 3.84-3.84z" fill="#666"/><path d="m-126.4341-3167.4315h16.32c2.12077 0 3.84 1.7192 3.84 3.84v16.32c0 2.1208-1.71923 3.84-3.84 3.84h-16.32c-2.12077 0-3.84-1.7192-3.84-3.84v-16.32c0-2.1208 1.71923-3.84 3.84-3.84z" stroke="#fff" stroke-linecap="round" stroke-linejoin="round" stroke-width=".25"/><path d="m-126.2741-3161.3262c0-1.1621.94316-2.1053 2.10526-2.1053h11.78948c1.1621 0 2.10526.9432 2.10526 2.1053v11.7894c0 1.1621-.94316 2.1053-2.10526 2.1053h-11.78948c-1.1621 0-2.10526-.9432-2.10526-2.1053zm.8421 0v11.7894c0 .6988.56422 1.2632 1.26316 1.2632h11.78948c.69894 0 1.26316-.5644 1.26316-1.2632v-11.7894c0-.699-.56422-1.2632-1.26316-1.2632h-11.78948c-.69894 0-1.26316.5642-1.26316 1.2632z" fill="#8eed62"/><path d="m-115.52042-3152.324c1.03579-.8254 1.65053-2.08 1.65053-3.4443 0-2.3327-1.81895-4.2611-4.13474-4.4043-.15157-.0084-.26947-.1431-.26105-.2947.00842-.1517.14316-.2695.29474-.261 2.61052.16 4.65684 2.3243 4.65684 4.9515 0 1.5242-.69053 2.9306-1.84421 3.8568h1.56631c.15158 0 .2779.1264.2779.278 0 .1515-.12632.278-.2779.278h-2.20631c-.15158 0-.27789-.1265-.27789-.278v-2.2063c0-.1517.12631-.2779.27789-.2779s.27789.1262.27789.2779v1.5157zm-5.50736-6.8886c-1.03579.8253-1.65053 2.08-1.65053 3.4443 0 2.341 1.82737 4.2693 4.16 4.4043.15158.0083.26947.1346.26105.2946-.00842.1514-.13474.2694-.29474.2611-2.61894-.1517-4.67368-2.3157-4.67368-4.9517 0-1.524.69053-2.9305 1.84421-3.8568h-1.56631c-.15158 0-.2779-.1262-.2779-.2779 0-.1515.12632-.2779.2779-.2779h2.20631c.15158 0 .2779.1264.2779.2779v2.2064c0 .1515-.12632.2778-.2779.2778s-.27789-.1263-.27789-.2778v-1.5157z" fill="#8eed62"/><path d="m-115.52042-3152.324c1.03579-.8254 1.65053-2.08 1.65053-3.4443 0-2.3327-1.81895-4.2611-4.13474-4.4043-.15157-.0084-.26947-.1431-.26105-.2947.00842-.1517.14316-.2695.29474-.261 2.61052.16 4.65684 2.3243 4.65684 4.9515 0 1.5242-.69053 2.9306-1.84421 3.8568h1.56631c.15158 0 .2779.1264.2779.278 0 .1515-.12632.278-.2779.278h-2.20631c-.15158 0-.27789-.1265-.27789-.278v-2.2063c0-.1517.12631-.2779.27789-.2779s.27789.1262.27789.2779v1.5157zm-5.50736-6.8886c-1.03579.8253-1.65053 2.08-1.65053 3.4443 0 2.341 1.82737 4.2693 4.16 4.4043.15158.0083.26947.1346.26105.2946-.00842.1514-.13474.2694-.29474.2611-2.61894-.1517-4.67368-2.3157-4.67368-4.9517 0-1.524.69053-2.9305 1.84421-3.8568h-1.56631c-.15158 0-.2779-.1262-.2779-.2779 0-.1515.12632-.2779.2779-.2779h2.20631c.15158 0 .2779.1264.2779.2779v2.2064c0 .1515-.12632.2778-.2779.2778s-.27789-.1263-.27789-.2778v-1.5157z" stroke="#518737" stroke-linejoin="round" stroke-width=".25"/></g></svg>

<?xml version="1.0" encoding="UTF-8" standalone="no"?>
<!DOCTYPE svg PUBLIC "-//W3C//DTD SVG 1.1//EN" "http://www.w3.org/Graphics/SVG/1.1/DTD/svg11.dtd">
<svg xmlns="http://www.w3.org/2000/svg" xmlns:xl="http://www.w3.org/1999/xlink" version="1.1" xmlns:dc="http://purl.org/dc/elements/1.1/" viewBox="-130.7741 -3167.9315 25 25" width="25" height="25">
  <defs/>
  <g id="SOURCES" stroke-opacity="1" fill="none" stroke="none" fill-opacity="1" stroke-dasharray="none">
    <title>SOURCES</title>
    <g id="SOURCES_Dark">
      <title>Dark</title>
      <g id="Graphic_11303">
        <path d="M -126.4341 -3167.4315 L -110.1141 -3167.4315 C -107.99333 -3167.4315 -106.2741 -3165.7123 -106.2741 -3163.5915 L -106.2741 -3147.2715 C -106.2741 -3145.1507 -107.99333 -3143.4315 -110.1141 -3143.4315 L -126.4341 -3143.4315 C -128.55487 -3143.4315 -130.2741 -3145.1507 -130.2741 -3147.2715 L -130.2741 -3163.5915 C -130.2741 -3165.7123 -128.55487 -3167.4315 -126.4341 -3167.4315 Z" fill="#666"/>
        <path d="M -126.4341 -3167.4315 L -110.1141 -3167.4315 C -107.99333 -3167.4315 -106.2741 -3165.7123 -106.2741 -3163.5915 L -106.2741 -3147.2715 C -106.2741 -3145.1507 -107.99333 -3143.4315 -110.1141 -3143.4315 L -126.4341 -3143.4315 C -128.55487 -3143.4315 -130.2741 -3145.1507 -130.2741 -3147.2715 L -130.2741 -3163.5915 C -130.2741 -3165.7123 -128.55487 -3167.4315 -126.4341 -3167.4315 Z" stroke="white" stroke-linecap="round" stroke-linejoin="round" stroke-width=".25"/>
      </g>
      <g id="Graphic_11302">
        <path d="M -126.2741 -3161.3262 C -126.2741 -3162.4883 -125.33094 -3163.4315 -124.16884 -3163.4315 L -112.37936 -3163.4315 C -111.21726 -3163.4315 -110.2741 -3162.4883 -110.2741 -3161.3262 L -110.2741 -3149.5368 C -110.2741 -3148.3747 -111.21726 -3147.4315 -112.37936 -3147.4315 L -124.16884 -3147.4315 C -125.33094 -3147.4315 -126.2741 -3148.3747 -126.2741 -3149.5368 Z M -125.432 -3161.3262 L -125.432 -3149.5368 C -125.432 -3148.838 -124.86778 -3148.2736 -124.16884 -3148.2736 L -112.37936 -3148.2736 C -111.68042 -3148.2736 -111.1162 -3148.838 -111.1162 -3149.5368 L -111.1162 -3161.3262 C -111.1162 -3162.0252 -111.68042 -3162.5894 -112.37936 -3162.5894 L -124.16884 -3162.5894 C -124.86778 -3162.5894 -125.432 -3162.0252 -125.432 -3161.3262 Z" fill="#8eed62"/>
      </g>
      <g id="Graphic_11300">
        <path d="M -115.52042 -3152.324 C -114.48463 -3153.1494 -113.86989 -3154.404 -113.86989 -3155.7683 C -113.86989 -3158.101 -115.68884 -3160.0294 -118.00463 -3160.1726 C -118.1562 -3160.181 -118.2741 -3160.3157 -118.26568 -3160.4673 C -118.25726 -3160.619 -118.12252 -3160.7368 -117.97094 -3160.7283 C -115.36042 -3160.5683 -113.3141 -3158.404 -113.3141 -3155.7768 C -113.3141 -3154.2526 -114.00463 -3152.8462 -115.15831 -3151.92 L -113.592 -3151.92 C -113.44042 -3151.92 -113.3141 -3151.7936 -113.3141 -3151.642 C -113.3141 -3151.4905 -113.44042 -3151.364 -113.592 -3151.364 L -115.79831 -3151.364 C -115.94989 -3151.364 -116.0762 -3151.4905 -116.0762 -3151.642 L -116.0762 -3153.8483 C -116.0762 -3154 -115.94989 -3154.1262 -115.79831 -3154.1262 C -115.64673 -3154.1262 -115.52042 -3154 -115.52042 -3153.8483 L -115.52042 -3152.3326 Z M -121.02778 -3159.2126 C -122.06357 -3158.3873 -122.67831 -3157.1326 -122.67831 -3155.7683 C -122.67831 -3153.4273 -120.85094 -3151.499 -118.51831 -3151.364 C -118.36673 -3151.3557 -118.24884 -3151.2294 -118.25726 -3151.0694 C -118.26568 -3150.918 -118.392 -3150.8 -118.552 -3150.8083 C -121.17094 -3150.96 -123.22568 -3153.124 -123.22568 -3155.76 C -123.22568 -3157.284 -122.53515 -3158.6905 -121.38147 -3159.6168 L -122.94778 -3159.6168 C -123.09936 -3159.6168 -123.22568 -3159.743 -123.22568 -3159.8947 C -123.22568 -3160.0462 -123.09936 -3160.1726 -122.94778 -3160.1726 L -120.74147 -3160.1726 C -120.58989 -3160.1726 -120.46357 -3160.0462 -120.46357 -3159.8947 L -120.46357 -3157.6883 C -120.46357 -3157.5368 -120.58989 -3157.4105 -120.74147 -3157.4105 C -120.89305 -3157.4105 -121.01936 -3157.5368 -121.01936 -3157.6883 L -121.01936 -3159.204 Z" fill="#8eed62"/>
        <path d="M -115.52042 -3152.324 C -114.48463 -3153.1494 -113.86989 -3154.404 -113.86989 -3155.7683 C -113.86989 -3158.101 -115.68884 -3160.0294 -118.00463 -3160.1726 C -118.1562 -3160.181 -118.2741 -3160.3157 -118.26568 -3160.4673 C -118.25726 -3160.619 -118.12252 -3160.7368 -117.97094 -3160.7283 C -115.36042 -3160.5683 -113.3141 -3158.404 -113.3141 -3155.7768 C -113.3141 -3154.2526 -114.00463 -3152.8462 -115.15831 -3151.92 L -113.592 -3151.92 C -113.44042 -3151.92 -113.3141 -3151.7936 -113.3141 -3151.642 C -113.3141 -3151.4905 -113.44042 -3151.364 -113.592 -3151.364 L -115.79831 -3151.364 C -115.94989 -3151.364 -116.0762 -3151.4905 -116.0762 -3151.642 L -116.0762 -3153.8483 C -116.0762 -3154 -115.94989 -3154.1262 -115.79831 -3154.1262 C -115.64673 -3154.1262 -115.52042 -3154 -115.52042 -3153.8483 L -115.52042 -3152.3326 Z M -121.02778 -3159.2126 C -122.06357 -3158.3873 -122.67831 -3157.1326 -122.67831 -3155.7683 C -122.67831 -3153.4273 -120.85094 -3151.499 -118.51831 -3151.364 C -118.36673 -3151.3557 -118.24884 -3151.2294 -118.25726 -3151.0694 C -118.26568 -3150.918 -118.392 -3150.8 -118.552 -3150.8083 C -121.17094 -3150.96 -123.22568 -3153.124 -123.22568 -3155.76 C -123.22568 -3157.284 -122.53515 -3158.6905 -121.38147 -3159.6168 L -122.94778 -3159.6168 C -123.09936 -3159.6168 -123.22568 -3159.743 -123.22568 -3159.8947 C -123.22568 -3160.0462 -123.09936 -3160.1726 -122.94778 -3160.1726 L -120.74147 -3160.1726 C -120.58989 -3160.1726 -120.46357 -3160.0462 -120.46357 -3159.8947 L -120.46357 -3157.6883 C -120.46357 -3157.5368 -120.58989 -3157.4105 -120.74147 -3157.4105 C -120.89305 -3157.4105 -121.01936 -3157.5368 -121.01936 -3157.6883 L -121.01936 -3159.204 Z" stroke="#518737" stroke-linecap="butt" stroke-linejoin="round" stroke-width=".25"/>
      </g>
    </g>
  </g>
</svg>
